X:106
T:Sumer is icumer
T:Perspice Christicola
Z:Transcrit et/ou corrigé par B@D - 2005-04-04
Z:Pour toute observation mailto:-@-
M:6/4
L:1/4
%%continueall 1
K:C
c2B A2B | c2c (BA)G | E2E F2D | E3 z3 | C2E D2F | E2E D2C | E2G A2A |
w:Bel é-té ré-jouit la ter-_re, chan-te gai cou-cou Tou fleu-rit, tout re-ver-dit, les près, les monts, les 
w:Su-mer is i-cum-en in-__ Lhu-de sing ku-ku. Gro-weth sed and blo-weth med and springth the wo-de 
G3z3 | c2c A3 | c3 z3 | G2E F2D | E2G F2E | C2E D2B, | C3 z3 |
w:bois. Chan-te cou-cou. La bre-bis pro-tè-ge ten-dre-ment l'a-gneau nou-veau.
w:nu. Sing_ ku-ku. A-we blet-eth al-ter lomb, lhouth al-ter cal-ve cu-
E2E D2F | G2G A2B | c2B A2B | c3 z3 | G3 A3 | G3 F2E | C2E F2D |
w:Les ca-bris bè-lants ré-pon-dent au chant du cou-cou. Cou-cou, cou-cou_ chan-te bien cou-
w:Bul-lue stert-eth, buck-e vert-eth mu-rie sing ku-ku. Ku-ku, ku-ku_ Wel sing-er ?hu-
E3 F2G | E2G D2B, | C3 z3 |]
w:cou. Chan-te, chan-te gai cou-cou~!
w:cu-cu-ne swik thu na-ver nu.





%%header "$P0	 $IR 	$P1"
%%footer $D - Éditions Galouvielle - 2009 - À usage librement privé dans le cadre familial

